camera-plus.svg

<svg fill="currentColor" viewBox="0 0 24 24"><path d="M3 4V1h2v3h3v2H5v3H3V6H0V4m6 6V7h3V4h7l1.8 2H21c1.1 0 2 .9 2 2v12c0 1.1-.9 2-2 2H5c-1.1 0-2-.9-2-2V10m10 9c4.45 0 6.69-5.38 3.54-8.54C13.39 7.31 8 9.55 8 14c0 2.76 2.24 5 5 5m-3.2-5c0 2.85 3.45 4.28 5.46 2.26 2.02-2.01.59-5.46-2.26-5.46A3.21 3.21 0 0 0 9.8 14"/></svg>

<svg  viewBox="0 0 24 24" fill="currentColor"><path  d="M3 4V1H5V4H8V6H5V9H3V6H0V4M6 10V7H9V4H16L17.8 6H21C22.1 6 23 6.9 23 8V20C23 21.1 22.1 22 21 22H5C3.9 22 3 21.1 3 20V10M13 19C17.45 19 19.69 13.62 16.54 10.46C13.39 7.31 8 9.55 8 14C8 16.76 10.24 19 13 19M9.8 14C9.8 16.85 13.25 18.28 15.26 16.26C17.28 14.25 15.85 10.8 13 10.8C11.24 10.8 9.8 12.24 9.8 14Z"/></svg>
